X: 360
T: The market girl
C: anon.
O: Ireland
B: Francis O'Neill: "The Dance Music of Ireland" (1907) no. 360
R: Double jig
Z: Transcribed by Frank Nordberg - http://www.musicaviva.com
F: http://www.musicaviva.com/abc/tunes/ireland/oneill-1001/oneill-1001-036
0.abc
m: Tn2 = (3n/o/n/ m/n/
M: 6/8
L: 1/8
K: G
DEF GB(G|A)GA (BG)E|D(EF) G2d|AEE GEE|DEF GB(d|A)GA TB2g|gfe dB(G|A)GE (G
E)D:|
|:Bdd dBd|(e/f/g)(e d)BG|Bdd dcB|AGE GED|Bdd (d2f)|edB def|gfe dcB|AGE GE
D: |
W:
W:
W: From Musica Viva - http://www.musicaviva.com
W: the Internet center for free sheet music downloads.


